svg/furkot/icomoon/compass.svg

<svg height="512" viewBox="0 0 512 512" width="512"><path d="m256 0c-141.385 0-256 114.615-256 256s114.615 256 256 256 256-114.615 256-256-114.615-256-256-256zm0 464c-114.875 0-208-93.125-208-208s93.125-208 208-208 208 93.125 208 208-93.125 208-208 208zm48-256-144-80h-32v32l80 144 144 80h32v-32zm-48 80c-17.673 0-32-14.327-32-32s14.327-32 32-32 32 14.327 32 32-14.327 32-32 32z"/></svg>

<svg width="512" height="512" viewBox="0 0 512 512" data-tags="compass, direction, map, locate" style="margin-left:8px;margin-top:8px"><path d="M 256.00,0.00C 114.615,0.00,0.00,114.615,0.00,256.00s 114.615,256.00, 256.00,256.00s 256.00-114.615, 256.00-256.00S 397.385,0.00, 256.00,0.00z M 256.00,464.00	c-114.875,0.00-208.00-93.125-208.00-208.00S 141.125,48.00, 256.00,48.00s 208.00,93.125, 208.00,208.00S 370.875,464.00, 256.00,464.00zM 304.00,208.00l-144.00-80.00l-32.00,0.00 l0.00,32.00 l 80.00,144.00l 144.00,80.00l 32.00,0.00 l0.00-32.00 L 304.00,208.00z M 256.00,288.00c-17.673,0.00-32.00-14.327-32.00-32.00c0.00-17.673, 14.327-32.00, 32.00-32.00	c 17.673,0.00, 32.00,14.327, 32.00,32.00C 288.00,273.673, 273.673,288.00, 256.00,288.00z"/></svg>
